X:1
T:The Burning od Auchindoon
M:4/4
L:1/4
K:D
 z2 z z/2 E/2| E3/2 B/2 B3/2 A/2| B/2 B3/2 E2| G3/2 G/2 F2| E3/2- D/2 B,3/2 E/2|\
 E2 B/2 B3/2| A A B3/2 A/2| G3/2 E/2 F3/2 D/2| E2 E2| B3/2 B/2 d2|\
 c3/2 c/2 B2| E3/2 B/2 B3/2 B/2| A- F D3/2 E/2| E2 B2| A A B2| G3/2 E/2 F3/2 D/2|\
 E2 E2| B2 d3/2 d/2| c2 B2| E3/2 B/2B/2 B3/2| A- F D2| E2 B2| A A B2|\
 G3/2 E/2 F/2- D3/2| E2 E3/2 z/2|
